assets/logo-bitgo.svg

<?xml version="1.0" encoding="UTF-8"?>
<svg width="225px" height="56px" viewBox="0 0 225 56" version="1.1" xmlns="http://www.w3.org/2000/svg" xmlns:xlink="http://www.w3.org/1999/xlink">
    <!-- Generator: Sketch 52.2 (67145) - http://www.bohemiancoding.com/sketch -->
    <title>Group 14</title>
    <desc>Created with Sketch.</desc>
    <defs>
        <polygon id="path-1" points="0.0004 0.1084 47.8004 0.1084 47.8004 56 0.0004 56"></polygon>
        <polygon id="path-3" points="0 59.8932 224.528 59.8932 224.528 4.0012 0 4.0012"></polygon>
    </defs>
    <g id="Designs" stroke="none" stroke-width="1" fill="none" fill-rule="evenodd">
        <g id="Partners" transform="translate(-366.000000, -1608.000000)">
            <g id="Group-4-Copy" transform="translate(250.000000, 1406.000000)">
                <g id="Group-3" transform="translate(0.000000, 128.000000)">
                    <g id="Group-14" transform="translate(116.000000, 70.000000)">
                        <g id="Group-3" transform="translate(0.000000, 3.893200)">
                            <mask id="mask-2" fill="white">
                                <use xlink:href="#path-1"></use>
                            </mask>
                            <g id="Clip-2"></g>
                            <path d="M23.9004,56.0004 C23.9004,56.0004 47.8004,47.8644 47.8004,18.0044 L47.8004,7.2564 C47.8004,6.0844 46.8924,5.1404 45.7404,5.0564 C41.4004,4.8524 31.1084,3.9684 23.9004,0.1084 C16.6924,3.9684 6.4004,4.8524 2.0644,5.0564 C0.9124,5.1404 0.0004,6.0844 0.0004,7.2564 L0.0004,18.0044 C0.0004,47.8644 23.9004,56.0004 23.9004,56.0004" id="Fill-1" fill="#00ADEE" mask="url(#mask-2)"></path>
                        </g>
                        <path d="M28.4176,27.0188 C28.3936,30.1268 23.5656,29.7308 22.0096,29.7188 L22.0016,24.2228 C23.5536,24.2348 28.4376,23.7748 28.4176,27.0188 M29.6376,35.5788 C29.6136,38.9988 23.8176,38.5668 21.9496,38.5588 L21.9416,32.4948 C23.8096,32.5108 29.6616,32.0148 29.6376,35.5788 M33.5576,25.8228 C33.2656,22.5628 30.4776,21.4468 26.9216,21.1108 L26.9416,16.5548 L24.1856,16.5668 L24.1976,20.9748 C23.4736,20.9668 22.6936,20.9788 21.9576,20.9868 L21.9616,16.5228 L19.1856,16.5348 L19.2056,21.0548 C18.6056,21.0628 13.6536,21.0748 13.6536,21.0748 L13.6496,23.9668 L17.1736,23.9588 L17.1656,38.4988 L14.0776,38.5148 L14.0536,41.8268 C14.0536,41.8268 18.4136,41.8108 19.0576,41.8188 L19.0696,46.3908 L21.7936,46.4068 L21.8096,41.8868 C22.5656,41.9068 23.2936,41.9188 24.0056,41.9228 L23.9976,46.4308 L26.7736,46.4268 L26.7616,41.8788 C31.3936,41.6468 34.6416,40.5068 35.0736,36.1628 C35.4216,32.6628 33.7896,31.0908 31.1656,30.4388 C32.7656,29.6388 33.7736,28.2108 33.5576,25.8228" id="Fill-4" fill="#FFFFFF"></path>
                        <path d="M84.7928,40.0636 C84.7928,38.2596 84.1168,37.0076 82.7648,36.3116 C81.4128,35.6156 79.6088,35.2676 77.3528,35.2676 L71.5128,35.2676 L71.5128,45.2276 L77.4168,45.2276 C78.2328,45.2276 79.0848,45.1556 79.9648,45.0116 C80.8488,44.8716 81.6488,44.6116 82.3648,44.2436 C83.0808,43.8756 83.6648,43.3516 84.1168,42.6756 C84.5688,41.9996 84.7928,41.1316 84.7928,40.0636 M83.3768,22.7836 C83.3768,21.3116 82.8168,20.2316 81.6888,19.5596 C80.5608,18.8796 78.8888,18.5436 76.6768,18.5436 L71.5128,18.5436 L71.5128,27.5196 L77.1688,27.5196 C79.1368,27.5196 80.6648,27.1196 81.7488,26.3196 C82.8368,25.5196 83.3768,24.3436 83.3768,22.7836 M95.3088,41.0476 C95.3088,43.4236 94.8368,45.4236 93.8928,47.0436 C92.9528,48.6596 91.7008,49.9636 90.1408,50.9476 C88.5848,51.9316 86.8128,52.6396 84.8248,53.0676 C82.8368,53.4956 80.7968,53.7156 78.7088,53.7156 L61.3688,53.7156 L61.3688,10.1796 L78.7088,10.1796 C80.3848,10.1796 82.1088,10.3556 83.8728,10.7036 C85.6328,11.0516 87.2328,11.6476 88.6688,12.4836 C90.1008,13.3236 91.2688,14.4636 92.1728,15.8956 C93.0728,17.3316 93.5248,19.1556 93.5248,21.3716 C93.5248,23.7916 92.8688,25.7876 91.5568,27.3676 C90.2448,28.9436 88.5248,30.0796 86.3928,30.7796 L86.3928,30.8996 C87.6248,31.1076 88.7808,31.4836 89.8688,32.0396 C90.9528,32.5916 91.8968,33.2996 92.6968,34.1596 C93.4928,35.0196 94.1288,36.0276 94.6008,37.1716 C95.0728,38.3196 95.3088,39.6116 95.3088,41.0476" id="Fill-6"  fill="#282138"></path>
                        <mask id="mask-4" fill="white">
                            <use xlink:href="#path-3"></use>
                        </mask>
                        <g id="Clip-9"></g>
                        <path d="M98.464,53.7132 L108.548,53.7132 L108.548,23.0932 L98.464,23.0932 L98.464,53.7132 Z M109.284,13.3172 C109.284,14.0932 109.132,14.8212 108.824,15.5012 C108.516,16.1732 108.108,16.7572 107.596,17.2492 C107.08,17.7452 106.468,18.1332 105.748,18.4172 C105.032,18.7052 104.284,18.8492 103.504,18.8492 C101.864,18.8492 100.492,18.3092 99.388,17.2212 C98.28,16.1332 97.728,14.8332 97.728,13.3172 C97.728,12.5772 97.868,11.8692 98.156,11.1932 C98.444,10.5172 98.852,9.9332 99.388,9.4412 C99.916,8.9492 100.532,8.5492 101.232,8.2452 C101.928,7.9332 102.684,7.7812 103.504,7.7812 C104.284,7.7812 105.032,7.9252 105.748,8.2132 C106.468,8.5012 107.08,8.8892 107.596,9.3812 C108.108,9.8732 108.516,10.4572 108.824,11.1332 C109.132,11.8092 109.284,12.5372 109.284,13.3172 Z" id="Fill-8"  fill="#282138" mask="url(#mask-4)"></path>
                        <path d="M126.826,30.5948 L126.826,42.3228 C126.826,43.7628 127.102,44.8428 127.658,45.5628 C128.21,46.2828 129.202,46.6428 130.638,46.6428 C131.13,46.6428 131.654,46.6028 132.206,46.5188 C132.758,46.4348 133.222,46.3148 133.59,46.1508 L133.714,53.5268 C133.014,53.7748 132.134,53.9908 131.07,54.1748 C130.002,54.3588 128.934,54.4508 127.87,54.4508 C125.822,54.4508 124.098,54.1948 122.706,53.6788 C121.314,53.1668 120.194,52.4268 119.354,51.4628 C118.514,50.4948 117.91,49.3428 117.542,48.0108 C117.17,46.6748 116.99,45.1828 116.99,43.5388 L116.99,30.5948 L112.07,30.5948 L112.07,23.0948 L116.926,23.0948 L116.926,15.0388 L126.826,15.0388 L126.826,23.0948 L134.018,23.0948 L134.018,30.5948 L126.826,30.5948 Z" id="Fill-10"  fill="#282138" mask="url(#mask-4)"></path>
                        <path d="M170.5136,53.7748 C167.6656,54.4708 164.5576,54.8188 161.1976,54.8188 C157.7136,54.8188 154.5056,54.2668 151.5736,53.1588 C148.6416,52.0548 146.1216,50.4948 144.0136,48.4868 C141.9016,46.4788 140.2496,44.0708 139.0616,41.2628 C137.8736,38.4548 137.2776,35.3308 137.2776,31.8868 C137.2776,28.4028 137.8816,25.2468 139.0936,22.4148 C140.3016,19.5868 141.9736,17.1788 144.1016,15.1908 C146.2336,13.2028 148.7376,11.6788 151.6056,10.6108 C154.4736,9.5428 157.5696,9.0108 160.8896,9.0108 C164.3336,9.0108 167.5296,9.5348 170.4816,10.5788 C173.4336,11.6228 175.8336,13.0268 177.6776,14.7908 L171.0376,22.3548 C170.0096,21.1668 168.6576,20.1908 166.9776,19.4348 C165.2976,18.6748 163.3896,18.2948 161.2576,18.2948 C159.4136,18.2948 157.7136,18.6348 156.1536,19.3108 C154.5976,19.9868 153.2456,20.9308 152.0976,22.1388 C150.9496,23.3508 150.0576,24.7828 149.4216,26.4428 C148.7856,28.1028 148.4696,29.9188 148.4696,31.8868 C148.4696,33.8948 148.7576,35.7388 149.3296,37.4188 C149.9056,39.1028 150.7536,40.5468 151.8816,41.7548 C153.0096,42.9628 154.4056,43.9068 156.0616,44.5828 C157.7216,45.2588 159.6176,45.5988 161.7536,45.5988 C162.9816,45.5988 164.1496,45.5068 165.2576,45.3188 C166.3616,45.1348 167.3856,44.8388 168.3296,44.4308 L168.3296,36.4988 L160.0296,36.4988 L160.0296,28.0108 L177.9856,28.0108 L177.9856,51.0708 C175.8496,52.1788 173.3616,53.0788 170.5136,53.7748" id="Fill-11"  fill="#282138" mask="url(#mask-4)"></path>
                        <path d="M206.1816,38.2804 C206.1816,37.2964 206.0176,36.3324 205.6896,35.3884 C205.3616,34.4484 204.8896,33.6164 204.2776,32.9004 C203.6616,32.1844 202.9016,31.6004 202.0016,31.1484 C201.0976,30.6964 200.0536,30.4724 198.8656,30.4724 C197.6776,30.4724 196.6296,30.6964 195.7296,31.1484 C194.8296,31.6004 194.0776,32.1844 193.4856,32.9004 C192.8896,33.6164 192.4376,34.4484 192.1336,35.3884 C191.8256,36.3324 191.6696,37.2964 191.6696,38.2804 C191.6696,39.2644 191.8256,40.2284 192.1336,41.1684 C192.4376,42.1124 192.9016,42.9644 193.5136,43.7204 C194.1296,44.4804 194.8896,45.0844 195.7896,45.5364 C196.6896,45.9884 197.7376,46.2124 198.9296,46.2124 C200.1136,46.2124 201.1616,45.9884 202.0616,45.5364 C202.9616,45.0844 203.7216,44.4804 204.3376,43.7204 C204.9536,42.9644 205.4136,42.1124 205.7216,41.1684 C206.0296,40.2284 206.1816,39.2644 206.1816,38.2804 M215.8976,38.2804 C215.8976,40.7804 215.4456,43.0444 214.5456,45.0764 C213.6416,47.1044 212.4136,48.8244 210.8536,50.2404 C209.2976,51.6524 207.4936,52.7524 205.4456,53.5284 C203.3936,54.3084 201.2016,54.6964 198.8656,54.6964 C196.5696,54.6964 194.3856,54.3084 192.3176,53.5284 C190.2456,52.7524 188.4416,51.6524 186.9056,50.2404 C185.3696,48.8244 184.1496,47.1044 183.2496,45.0764 C182.3456,43.0444 181.8936,40.7804 181.8936,38.2804 C181.8936,35.7804 182.3456,33.5244 183.2496,31.5164 C184.1496,29.5084 185.3696,27.8084 186.9056,26.4124 C188.4416,25.0204 190.2456,23.9524 192.3176,23.2164 C194.3856,22.4764 196.5696,22.1084 198.8656,22.1084 C201.2016,22.1084 203.3936,22.4764 205.4456,23.2164 C207.4936,23.9524 209.2976,25.0204 210.8536,26.4124 C212.4136,27.8084 213.6416,29.5084 214.5456,31.5164 C215.4456,33.5244 215.8976,35.7804 215.8976,38.2804" id="Fill-12"  fill="#282138" mask="url(#mask-4)"></path>
                        <path d="M220.2576,50.962 L220.9936,50.962 C221.7456,50.962 221.9896,50.746 221.9896,50.302 C221.9896,49.918 221.8016,49.702 221.0936,49.702 L220.2576,49.702 L220.2576,50.962 Z M220.2576,53.218 L219.6376,53.218 L219.6376,49.194 L221.1776,49.194 C222.1416,49.194 222.6096,49.55 222.6096,50.342 C222.6096,51.066 222.1576,51.378 221.5576,51.45 L222.7056,53.218 L222.0256,53.218 L220.9536,51.47 L220.2576,51.47 L220.2576,53.218 Z M221.0016,48.282 C219.3816,48.282 218.1296,49.53 218.1296,51.198 C218.1296,52.898 219.3816,54.13 221.0016,54.13 C222.6016,54.13 223.8496,52.898 223.8496,51.198 C223.8496,49.53 222.6016,48.282 221.0016,48.282 Z M221.0016,47.714 C222.9016,47.714 224.5296,49.194 224.5296,51.198 C224.5296,53.218 222.9016,54.698 221.0016,54.698 C219.0816,54.698 217.4536,53.218 217.4536,51.198 C217.4536,49.194 219.0816,47.714 221.0016,47.714 Z" id="Fill-13"  fill="#282138" mask="url(#mask-4)"></path>
                    </g>
                </g>
            </g>
        </g>
    </g>
</svg>

<svg height="56" viewBox="0 0 225 56" width="225" xmlns="http://www.w3.org/2000/svg" xmlns:xlink="http://www.w3.org/1999/xlink"><mask id="a" fill="#fff"><path d="m.0004.1084h47.8v55.8916h-47.8z" fill="#fff" fill-rule="evenodd"/></mask><mask id="b" fill="#fff"><path d="m0 59.8932h224.528v-55.892h-224.528z" fill="#fff" fill-rule="evenodd"/></mask><g fill="none" fill-rule="evenodd" transform="translate(0 -4)"><path d="m23.9004 56.0004s23.9-8.136 23.9-37.996v-10.748c0-1.172-.908-2.116-2.06-2.2-4.34-.204-14.632-1.088-21.84-4.948-7.208 3.86-17.5 4.744-21.836 4.948-1.152.084-2.064 1.028-2.064 2.2v10.748c0 29.86 23.9 37.996 23.9 37.996" fill="#00adee" mask="url(#a)" transform="translate(0 3.8932)"/><path d="m28.4176 27.0188c-.024 3.108-4.852 2.712-6.408 2.7l-.008-5.496c1.552.012 6.436-.448 6.416 2.796m1.22 8.56c-.024 3.42-5.82 2.988-7.688 2.98l-.008-6.064c1.868.016 7.72-.48 7.696 3.084m3.92-9.756c-.292-3.26-3.08-4.376-6.636-4.712l.02-4.556-2.756.012.012 4.408c-.724-.008-1.504.004-2.24.012l.004-4.464-2.776.012.02 4.52c-.6.008-5.552.02-5.552.02l-.004 2.892 3.524-.008-.008 14.54-3.088.016-.024 3.312s4.36-.016 5.004-.008l.012 4.572 2.724.016.016-4.52c.756.02 1.484.032 2.196.036l-.008 4.508 2.776-.004-.012-4.548c4.632-.232 7.88-1.372 8.312-5.716.348-3.5-1.284-5.072-3.908-5.724 1.6-.8 2.608-2.228 2.392-4.616" fill="#fff"/><g fill="#282138"><path d="m84.7928 40.0636c0-1.804-.676-3.056-2.028-3.752s-3.156-1.044-5.412-1.044h-5.84v9.96h5.904c.816 0 1.668-.072 2.548-.216.884-.14 1.684-.4 2.4-.768s1.3-.892 1.752-1.568.676-1.544.676-2.612m-1.416-17.28c0-1.472-.56-2.552-1.688-3.224-1.128-.68-2.8-1.016-5.012-1.016h-5.164v8.976h5.656c1.968 0 3.496-.4 4.58-1.2 1.088-.8 1.628-1.976 1.628-3.536m11.932 18.264c0 2.376-.472 4.376-1.416 5.996-.94 1.616-2.192 2.92-3.752 3.904-1.556.984-3.328 1.692-5.316 2.12s-4.028.648-6.116.648h-17.34v-43.536h17.34c1.676 0 3.4.176 5.164.524 1.76.348 3.36.944 4.796 1.78 1.432.84 2.6 1.98 3.504 3.412.9 1.436 1.352 3.26 1.352 5.476 0 2.42-.656 4.416-1.968 5.996-1.312 1.576-3.032 2.712-5.164 3.412v.12c1.232.208 2.388.584 3.476 1.14 1.084.552 2.028 1.26 2.828 2.12.796.86 1.432 1.868 1.904 3.012.472 1.148.708 2.44.708 3.876"/><path d="m98.464 53.7132h10.084v-30.62h-10.084zm10.82-40.396c0 .776-.152 1.504-.46 2.184-.308.672-.716 1.256-1.228 1.748-.516.496-1.128.884-1.848 1.168-.716.288-1.464.432-2.244.432-1.64 0-3.012-.54-4.116-1.628-1.108-1.088-1.66-2.388-1.66-3.904 0-.74.14-1.448.428-2.124s.696-1.26 1.232-1.752c.528-.492 1.144-.892 1.844-1.196.696-.312 1.452-.464 2.272-.464.78 0 1.528.144 2.244.432.72.288 1.332.676 1.848 1.168.512.492.92 1.076 1.228 1.752s.46 1.404.46 2.184z" mask="url(#b)"/><path d="m126.826 30.5948v11.728c0 1.44.276 2.52.832 3.24.552.72 1.544 1.08 2.98 1.08.492 0 1.016-.04 1.568-.124s1.016-.204 1.384-.368l.124 7.376c-.7.248-1.58.464-2.644.648-1.068.184-2.136.276-3.2.276-2.048 0-3.772-.256-5.164-.772-1.392-.512-2.512-1.252-3.352-2.216-.84-.968-1.444-2.12-1.812-3.452-.372-1.336-.552-2.828-.552-4.472v-12.944h-4.92v-7.5h4.856v-8.056h9.9v8.056h7.192v7.5z" mask="url(#b)"/><path d="m170.5136 53.7748c-2.848.696-5.956 1.044-9.316 1.044-3.484 0-6.692-.552-9.624-1.66-2.932-1.104-5.452-2.664-7.56-4.672-2.112-2.008-3.764-4.416-4.952-7.224s-1.784-5.932-1.784-9.376c0-3.484.604-6.64 1.816-9.472 1.208-2.828 2.88-5.236 5.008-7.224 2.132-1.988 4.636-3.512 7.504-4.58s5.964-1.6 9.284-1.6c3.444 0 6.64.524 9.592 1.568s5.352 2.448 7.196 4.212l-6.64 7.564c-1.028-1.188-2.38-2.164-4.06-2.92-1.68-.76-3.588-1.14-5.72-1.14-1.844 0-3.544.34-5.104 1.016-1.556.676-2.908 1.62-4.056 2.828-1.148 1.212-2.04 2.644-2.676 4.304s-.952 3.476-.952 5.444c0 2.008.288 3.852.86 5.532.576 1.684 1.424 3.128 2.552 4.336s2.524 2.152 4.18 2.828c1.66.676 3.556 1.016 5.692 1.016 1.228 0 2.396-.092 3.504-.28 1.104-.184 2.128-.48 3.072-.888v-7.932h-8.3v-8.488h17.956v23.06c-2.136 1.108-4.624 2.008-7.472 2.704" mask="url(#b)"/><path d="m206.1816 38.2804c0-.984-.164-1.948-.492-2.892-.328-.94-.8-1.772-1.412-2.488-.616-.716-1.376-1.3-2.276-1.752-.904-.452-1.948-.676-3.136-.676s-2.236.224-3.136.676-1.652 1.036-2.244 1.752c-.596.716-1.048 1.548-1.352 2.488-.308.944-.464 1.908-.464 2.892s.156 1.948.464 2.888c.304.944.768 1.796 1.38 2.552.616.76 1.376 1.364 2.276 1.816s1.948.676 3.14.676c1.184 0 2.232-.224 3.132-.676s1.66-1.056 2.276-1.816c.616-.756 1.076-1.608 1.384-2.552.308-.94.46-1.904.46-2.888m9.716 0c0 2.5-.452 4.764-1.352 6.796-.904 2.028-2.132 3.748-3.692 5.164-1.556 1.412-3.36 2.512-5.408 3.288-2.052.78-4.244 1.168-6.58 1.168-2.296 0-4.48-.388-6.548-1.168-2.072-.776-3.876-1.876-5.412-3.288-1.536-1.416-2.756-3.136-3.656-5.164-.904-2.032-1.356-4.296-1.356-6.796s.452-4.756 1.356-6.764c.9-2.008 2.12-3.708 3.656-5.104 1.536-1.392 3.34-2.46 5.412-3.196 2.068-.74 4.252-1.108 6.548-1.108 2.336 0 4.528.368 6.58 1.108 2.048.736 3.852 1.804 5.408 3.196 1.56 1.396 2.788 3.096 3.692 5.104.9 2.008 1.352 4.264 1.352 6.764" mask="url(#b)"/><path d="m220.2576 50.962h.736c.752 0 .996-.216.996-.66 0-.384-.188-.6-.896-.6h-.836zm0 2.256h-.62v-4.024h1.54c.964 0 1.432.356 1.432 1.148 0 .724-.452 1.036-1.052 1.108l1.148 1.768h-.68l-1.072-1.748h-.696zm.744-4.936c-1.62 0-2.872 1.248-2.872 2.916 0 1.7 1.252 2.932 2.872 2.932 1.6 0 2.848-1.232 2.848-2.932 0-1.668-1.248-2.916-2.848-2.916zm0-.568c1.9 0 3.528 1.48 3.528 3.484 0 2.02-1.628 3.5-3.528 3.5-1.92 0-3.548-1.48-3.548-3.5 0-2.004 1.628-3.484 3.548-3.484z" mask="url(#b)"/></g></g></svg>
